X:4
T:Reel 4
M:4/4
K:Gmaj
L:1/8
c|Bcde dcBG|B|GBdB bgg2|Bcde dBgB|AGAB AGEG|Bdde dBGB|ABgd eAAc|Bdgf gbag|fdef g2|d2|g2gd gbag|fdad bdad|gdgf gbag|fdef g2ga|bggf gbag|fdad bdad|edcB Addg|fdef g2|
